svg/business/shopping_bag_3_line.svg

<?xml version="1.0" encoding="UTF-8"?>
<svg width="24px" height="24px" viewBox="0 0 24 24" version="1.1" xmlns="http://www.w3.org/2000/svg" xmlns:xlink="http://www.w3.org/1999/xlink">
    <title>shopping_bag_3_line</title>
    <g id="页面-1" stroke="none" stroke-width="1" fill="none" fill-rule="evenodd">
        <g id="Business" transform="translate(-864.000000, -288.000000)" fill-rule="nonzero">
            <g id="shopping_bag_3_line" transform="translate(864.000000, 288.000000)">
                <path d="M24,0 L24,24 L0,24 L0,0 L24,0 Z M12.5934901,23.257841 L12.5819402,23.2595131 L12.5108777,23.2950439 L12.4918791,23.2987469 L12.4918791,23.2987469 L12.4767152,23.2950439 L12.4056548,23.2595131 C12.3958229,23.2563662 12.3870493,23.2590235 12.3821421,23.2649074 L12.3780323,23.275831 L12.360941,23.7031097 L12.3658947,23.7234994 L12.3769048,23.7357139 L12.4804777,23.8096931 L12.4953491,23.8136134 L12.4953491,23.8136134 L12.5071152,23.8096931 L12.6106902,23.7357139 L12.6232938,23.7196733 L12.6232938,23.7196733 L12.6266527,23.7031097 L12.609561,23.275831 C12.6075724,23.2657013 12.6010112,23.2592993 12.5934901,23.257841 L12.5934901,23.257841 Z M12.8583906,23.1452862 L12.8445485,23.1473072 L12.6598443,23.2396597 L12.6498822,23.2499052 L12.6498822,23.2499052 L12.6471943,23.2611114 L12.6650943,23.6906389 L12.6699349,23.7034178 L12.6699349,23.7034178 L12.678386,23.7104931 L12.8793402,23.8032389 C12.8914285,23.8068999 12.9022333,23.8029875 12.9078286,23.7952264 L12.9118235,23.7811639 L12.8776777,23.1665331 C12.8752882,23.1545897 12.8674102,23.1470016 12.8583906,23.1452862 L12.8583906,23.1452862 Z M12.1430473,23.1473072 C12.1332178,23.1423925 12.1221763,23.1452606 12.1156365,23.1525954 L12.1099173,23.1665331 L12.0757714,23.7811639 C12.0751323,23.7926639 12.0828099,23.8018602 12.0926481,23.8045676 L12.108256,23.8032389 L12.3092106,23.7104931 L12.3186497,23.7024347 L12.3186497,23.7024347 L12.3225043,23.6906389 L12.340401,23.2611114 L12.337245,23.2485176 L12.337245,23.2485176 L12.3277531,23.2396597 L12.1430473,23.1473072 Z" id="MingCute" fill-rule="nonzero"></path>
                <path d="M16.5858,3 C17.1162,3 17.6249,3.21071 18,3.58579 L20.4142,6 C20.7893,6.37507 21,6.88378 21,7.41421 L21,19 C21,20.6569 19.6569,22 18,22 L6,22 C4.34315,22 3,20.6569 3,19 L3,7.41421 C3,6.88378 3.21071,6.37507 3.58579,6 L6,3.58579 C6.37507,3.21071 6.88378,3 7.41421,3 L16.5858,3 Z M19,9 L5,9 L5,19 C5,19.5523 5.44772,20 6,20 L18,20 C18.5523,20 19,19.5523 19,19 L19,9 Z M15,11 C15.5523,11 16,11.4477 16,12 C16,14.2091 14.2091,16 12,16 C9.79086,16 8,14.2091 8,12 C8,11.4477 8.44772,11 9,11 C9.55228,11 10,11.4477 10,12 C10,13.1046 10.8954,14 12,14 C13.0543909,14 13.9181678,13.18415 13.9945144,12.1492661 L14,12 C14,11.4477 14.4477,11 15,11 Z M16.5858,5 L7.41421,5 L5.41421,7 L18.5858,7 L16.5858,5 Z" id="形状" fill="#09244B"></path>
            </g>
        </g>
    </g>
</svg>

<svg xmlns="http://www.w3.org/2000/svg" width="24" height="24"><g fill="none" fill-rule="nonzero"><path d="M24 0v24H0V0zM12.593 23.258l-.011.002-.071.035-.02.004-.014-.004-.071-.035c-.01-.004-.019-.001-.024.005l-.004.01-.017.428.005.02.01.013.104.074.015.004.012-.004.104-.074.012-.016.004-.017-.017-.427c-.002-.01-.009-.017-.017-.018m.265-.113-.013.002-.185.093-.01.01-.003.011.018.43.005.012.008.007.201.093c.012.004.023 0 .029-.008l.004-.014-.034-.614c-.003-.012-.01-.02-.02-.022m-.715.002a.023.023 0 0 0-.027.006l-.006.014-.034.614c0 .012.007.02.017.024l.015-.002.201-.093.01-.008.004-.011.017-.43-.003-.012-.01-.01z"/><path fill="#09244B" d="M16.586 3A2 2 0 0 1 18 3.586L20.414 6A2 2 0 0 1 21 7.414V19a3 3 0 0 1-3 3H6a3 3 0 0 1-3-3V7.414A2 2 0 0 1 3.586 6L6 3.586A2 2 0 0 1 7.414 3zM19 9H5v10a1 1 0 0 0 1 1h12a1 1 0 0 0 1-1zm-4 2a1 1 0 0 1 1 1 4 4 0 0 1-8 0 1 1 0 1 1 2 0 2 2 0 0 0 3.995.15L14 12a1 1 0 0 1 1-1m1.586-6H7.414l-2 2h13.172z"/></g></svg>
